X:1
T:Title
%%score { ( 1 4 ) | ( 2 3 ) }
L:1/8
M:3/4
K:G
V:1 treble nm="Grand Piano"
V:4 treble 
V:2 bass 
V:3 bass 
V:1
 z2 z2[Q:1/4=100] D2 | DB B2 GA | GF F2 D2 | Dc c2 AB | AG G2 d2 | dB B2 AB | %6
 [EA][EG] [EG]2 [EA]2 | BD B2 A2 |[M:2/4] [B,G]4 |[M:1/4] d2 |[M:3/4] dB d2 [Ge]2 | [FA]4 z2 | %12
 [Fc][FA] [Ac]2 [Fd]2 | [GB]4 z2 | dB B2 AB | [EA][EG] [EG]2 [EA]2 | BD B2 A2 | [B,G]4 z2 |] %18
V:2
 z2 z2 [G,B,]2 | [G,B,][G,D] [G,D]2 [G,B,]2 | [D,A,C][D,A,C] [D,A,C]2 [D,F,C]2 | %3
 [D,F,C][D,A,D] [D,A,D]2 CD | [G,C][G,B,] [G,B,]2[K:treble] [G,B,G]2 | %5
 [G,B,G][G,DG] [G,DG]2 [G,CF][B,=F] | [C,C][C,C] [C,C]2 [C,G,]2 | %7
 [D,G,D][D,G,B,] [D,F,D]2 [D,F,C]2 |[M:2/4] [G,,G,]4 |[M:1/4][K:treble] [G,B,G]2 | %10
[M:3/4] [G,B,G][G,DG] [G,B,G]2[K:bass] [C,C]2 | [D,C]D, D,2 [D,A,]2 | [D,A,][D,D] [D,D]2 [D,D]2 | %13
 [G,D]G, G,2[K:treble] [G,B,G]2 | [G,B,G][G,DG] [G,DG]2 [G,CF][B,=F] | [C,C][C,C] [C,C]2 [C,G,]2 | %16
 [D,G,D][D,G,B,] [D,F,D]2 [D,F,C]2 | [G,,G,]4 z2 |] %18
V:3
 x6 | x6 | x6 | z2 z2 [D,F,]2 | x4[K:treble] x2 | x6 | x6 | x6 |[M:2/4] x4 |[M:1/4][K:treble] x2 | %10
[M:3/4] x4[K:bass] x2 | x6 | x6 | x4[K:treble] x2 | x6 | x6 | x6 | x6 |] %18
V:4
 x6 | x6 | x6 | x6 | x6 | x6 | x6 | x6 |[M:2/4] x4 |[M:1/4] x2 |[M:3/4] x6 | z C C2 [Fc]2 | x6 | %13
 z D D2 d2 | x6 | x6 | x6 | x6 |] %18

